src/assets/icons/css.svg

<svg width="50" height="50" viewBox="0 0 50 50" fill="none" xmlns="http://www.w3.org/2000/svg">
<path d="M7.03125 44.9219L2.92969 0H46.9727L42.9688 44.9219L25 50" fill="#264DE4"/>
<path d="M25 3.61328V46.0938L39.5508 42.0898L42.9688 3.61328" fill="#2965F1"/>
<path d="M11.1328 9.17969H25V14.6484H11.6211M12.1094 20.3125H25V25.8789H12.5977M12.8906 28.6133H18.3594L18.75 33.0078L25 34.668V40.4297L13.5742 37.3047" fill="#EBEBEB"/>
<path d="M25 20.3125V25.8789H31.7383L31.0547 33.0078L25 34.668V40.4297L36.2305 37.3047L38.7695 9.17969H25V14.6484H32.8125L32.2754 20.3125H25Z" fill="white"/>
</svg>

<svg width="50" height="50" fill="none" xmlns="http://www.w3.org/2000/svg"><path d="M7.031 44.922 2.93 0h44.043l-4.004 44.922L25 50" fill="#264DE4"/><path d="M25 3.613v42.48l14.55-4.003L42.97 3.613" fill="#2965F1"/><path d="M11.133 9.18H25v5.468H11.621m.488 5.665H25v5.566H12.598m.293 2.734h5.468l.391 4.395 6.25 1.66v5.762l-11.426-3.125" fill="#EBEBEB"/><path d="M25 20.313v5.566h6.738l-.683 7.129L25 34.668v5.762l11.23-3.125L38.77 9.18H25v5.468h7.813l-.538 5.665H25Z" fill="#fff"/></svg>
